assets/svg/wallet_icon_wallet_noaccess.svg

<svg width="80" height="80" viewBox="0 0 80 80" fill="none" xmlns="http://www.w3.org/2000/svg">
    <path
        d="M40.1023 8.05312H28.6195C27.6789 8.05312 26.843 7.45156 26.5445 6.55781L25.1914 2.5H43.532L42.1789 6.55781C42.0332 6.99328 41.7544 7.37195 41.3817 7.64028C41.0091 7.90861 40.5615 8.05303 40.1023 8.05312ZM50.3586 68.1021V70.5203C50.3586 72.8641 48.4586 74.7641 46.1148 74.7641H27.3555C25.8461 74.7641 24.6211 75.9891 24.6211 77.4984H46.1148C49.9695 77.4984 53.093 74.3734 53.093 70.5203V69.188L50.3586 68.1021Z"
        fill="#E1EAF8" />
    <path
        d="M46.1129 78.0463H22.6051C18.4551 78.0463 15.0801 74.6697 15.0801 70.5213V61.79C15.0801 61.4885 15.3254 61.2432 15.627 61.2432C15.9285 61.2432 16.1738 61.4885 16.1738 61.79V70.5213C16.1738 74.0682 19.0598 76.9525 22.6051 76.9525H46.1129C49.6598 76.9525 52.5441 74.0666 52.5441 70.5213V69.189C52.5441 68.8874 52.7895 68.6421 53.091 68.6421C53.3926 68.6421 53.6379 68.8874 53.6379 69.189V70.5213C53.6379 74.6697 50.2629 78.0463 46.1129 78.0463Z"
        fill="#9A9A9A" />
    <path
        d="M52.5441 9.47812V33.024C52.5441 33.3255 52.7895 33.5708 53.091 33.5708C53.3926 33.5708 53.6379 33.3255 53.6379 33.024V9.47812C53.6379 5.32812 50.2613 1.95312 46.1129 1.95312H22.6051C18.4551 1.95312 15.0801 5.32969 15.0801 9.47812V57.5375C15.0801 57.8391 15.3254 58.0844 15.627 58.0844C15.9285 58.0844 16.1738 57.8391 16.1738 57.5375V9.47812C16.1738 5.93125 19.0598 3.04688 22.6051 3.04688H46.1129C49.6598 3.04688 52.5441 5.93281 52.5441 9.47812Z"
        fill="#9A9A9A" />
    <path
        d="M36.3133 44.7314C36.2321 44.7314 36.1492 44.7127 36.0711 44.6752L32.4242 42.8674C32.2969 42.8014 32.2006 42.6881 32.156 42.5518C32.1114 42.4155 32.1222 42.2672 32.1859 42.1388C32.2496 42.0103 32.3612 41.912 32.4967 41.8651C32.6321 41.8181 32.7806 41.8262 32.9102 41.8877L36.5555 43.6939C36.6854 43.7584 36.7844 43.8718 36.8307 44.0092C36.877 44.1466 36.8668 44.2968 36.8024 44.4267C36.7574 44.5181 36.6878 44.595 36.6013 44.6489C36.5149 44.7027 36.4151 44.7313 36.3133 44.7314ZM32.8867 58.9064C32.6852 58.9064 32.4899 58.7939 32.3946 58.6002C32.3309 58.47 32.3214 58.3199 32.3683 58.1828C32.4151 58.0457 32.5145 57.9328 32.6446 57.8689L36.2992 56.0783C36.4294 56.0146 36.5795 56.0051 36.7166 56.052C36.8537 56.0989 36.9666 56.1982 37.0305 56.3283C37.0942 56.4584 37.1036 56.6085 37.0568 56.7456C37.0099 56.8827 36.9105 56.9956 36.7805 57.0595L33.1274 58.8502C33.0492 58.8892 32.9664 58.9064 32.8867 58.9064ZM70.3086 42.1694C70.1196 42.1694 69.9352 42.071 69.8336 41.8944C69.7978 41.8322 69.7745 41.7635 69.7653 41.6922C69.756 41.621 69.7609 41.5486 69.7796 41.4792C69.7983 41.4099 69.8305 41.3449 69.8744 41.288C69.9182 41.231 69.9729 41.1833 70.0352 41.1476L73.5617 39.1194C73.6874 39.0485 73.8361 39.0301 73.9753 39.0682C74.1145 39.1064 74.233 39.198 74.3049 39.3231C74.3769 39.4483 74.3964 39.5968 74.3594 39.7363C74.3223 39.8758 74.2316 39.995 74.1071 40.0679L70.5805 42.096C70.4961 42.146 70.4008 42.1694 70.3086 42.1694ZM59.8852 35.4772C59.8072 35.4774 59.7302 35.4609 59.6591 35.4288C59.5881 35.3967 59.5248 35.3498 59.4734 35.2912C59.422 35.2325 59.3838 35.1636 59.3613 35.089C59.3388 35.0143 59.3326 34.9357 59.343 34.8585L59.8836 30.8257C59.9242 30.5257 60.1992 30.3147 60.4977 30.3569C60.7977 30.3976 61.0071 30.6726 60.9664 30.971L60.4258 35.0038C60.4081 35.1347 60.3436 35.2548 60.2442 35.3418C60.1448 35.4289 60.0173 35.477 59.8852 35.4772Z"
        fill="#FD4E4E" />
    <path
        d="M52 40C45.3719 40 40 45.3732 40 52C40 58.6281 45.3732 64 52 64C58.6281 64 64 58.6268 64 52C64 45.3719 58.6281 40 52 40ZM58.6629 57.3848C58.8322 57.5544 58.9273 57.7843 58.9273 58.0239C58.9273 58.2635 58.8322 58.4933 58.6629 58.6629C58.4861 58.8398 58.255 58.9276 58.0239 58.9276C57.7928 58.9276 57.5617 58.8398 57.3848 58.6629L52 53.2781L46.6152 58.6629C46.4383 58.8398 46.2072 58.9276 45.9761 58.9276C45.745 58.9276 45.5139 58.8398 45.3371 58.6629C45.1678 58.4933 45.0727 58.2635 45.0727 58.0239C45.0727 57.7843 45.1678 57.5544 45.3371 57.3848L50.7219 52L45.3371 46.6152C44.9846 46.2627 44.9846 45.6895 45.3371 45.3371C45.6895 44.9846 46.2627 44.9846 46.6152 45.3371L52 50.7219L57.3848 45.3371C57.7373 44.9846 58.3105 44.9846 58.6629 45.3371C59.0154 45.6895 59.0154 46.2627 58.6629 46.6152L53.2781 52L58.6629 57.3848Z"
        fill="#FD4E4E" />
    <path
        d="M47.9729 13H21.0271C19.9081 13 19 13.9684 19 15.1615V32.8385C19 34.0316 19.9081 35 21.0271 35H26.0218H47.9729C49.0919 35 50 34.0316 50 32.8385V15.1615C50 13.9684 49.0919 13 47.9729 13Z"
        fill="#E1EAF8" />
    <path
        d="M39.2745 22.5897C39.2745 23.1314 38.8164 23.5705 38.2513 23.5705C37.6862 23.5705 37.228 23.1314 37.228 22.5897C37.228 22.048 37.6862 21.6089 38.2513 21.6089C38.8164 21.6089 39.2745 22.048 39.2745 22.5897Z"
        fill="#9A9A9A" />
    <path fill-rule="evenodd" clip-rule="evenodd"
        d="M38.926 19.257C38.1488 19.1568 37.1558 19.1569 35.9022 19.1569H33.0965C31.8429 19.1569 30.8499 19.1568 30.0727 19.257C29.2729 19.3601 28.6256 19.5772 28.1151 20.0666C27.6046 20.5559 27.378 21.1764 27.2705 21.943C27.166 22.6879 27.166 23.6397 27.166 24.8414V24.9152C27.166 26.1169 27.166 27.0687 27.2705 27.8136C27.378 28.5802 27.6046 29.2007 28.1151 29.69C28.6256 30.1794 29.2729 30.3965 30.0727 30.4996C30.8499 30.5998 31.8429 30.5997 33.0965 30.5997H35.9022C37.1558 30.5997 38.1488 30.5998 38.926 30.4996C39.7258 30.3965 40.3731 30.1794 40.8836 29.69C41.3941 29.2007 41.6207 28.5802 41.7282 27.8136C41.8327 27.0687 41.8327 26.1169 41.8327 24.9152V24.8414C41.8327 23.6397 41.8327 22.6879 41.7282 21.943C41.6207 21.1764 41.3941 20.5559 40.8836 20.0666C40.3731 19.5772 39.7258 19.3601 38.926 19.257ZM30.2091 20.2291C29.5228 20.3175 29.1273 20.4834 28.8386 20.7601C28.5499 21.0368 28.3769 21.4159 28.2846 22.0737C28.2106 22.6014 28.194 23.2609 28.1903 24.1235L28.5356 23.8339C29.36 23.1426 30.6024 23.1822 31.3769 23.9246L34.3033 26.7296C34.5963 27.0104 35.0575 27.0487 35.3965 26.8204L35.5999 26.6833C36.5756 26.0261 37.8957 26.1022 38.7821 26.8669L40.5478 28.3901C40.62 28.1964 40.6745 27.9654 40.7141 27.6829C40.8083 27.0109 40.8094 26.1251 40.8094 24.8783C40.8094 23.6315 40.8083 22.7457 40.7141 22.0737C40.6218 21.4159 40.4488 21.0368 40.1601 20.7601C39.8714 20.4834 39.4759 20.3175 38.7896 20.2291C38.0886 20.1387 37.1645 20.1377 35.8637 20.1377H33.135C31.8342 20.1377 30.9101 20.1387 30.2091 20.2291Z"
        fill="#9A9A9A" />
    <path
        d="M38.2293 17.1142C37.5988 17.0332 36.796 17.0332 35.7953 17.0332H33.5295C32.5288 17.0332 31.726 17.0332 31.0955 17.1142C30.4425 17.198 29.8981 17.3767 29.4664 17.7891C29.2173 18.0269 29.0496 18.3006 28.9354 18.6093C29.3051 18.4407 29.7232 18.3413 30.1925 18.2805C30.9877 18.1775 32.0038 18.1775 33.2866 18.1775H36.1575C37.4404 18.1775 38.4564 18.1775 39.2516 18.2805C39.6616 18.3336 40.0324 18.4161 40.366 18.5486C40.2526 18.2646 40.091 18.0112 39.8584 17.7891C39.4267 17.3767 38.8823 17.198 38.2293 17.1142Z"
        fill="#9A9A9A" />
</svg>

<svg xmlns="http://www.w3.org/2000/svg" width="80" height="80" fill="none"><path fill="#E1EAF8" d="M40.102 8.053H28.62c-.941 0-1.777-.601-2.076-1.495L25.191 2.5h18.341l-1.353 4.058a2.19 2.19 0 0 1-2.077 1.495m10.257 60.05v2.417c0 2.344-1.9 4.244-4.244 4.244h-18.76a2.735 2.735 0 0 0-2.734 2.734h21.494a6.98 6.98 0 0 0 6.978-6.978v-1.332z"/><path fill="#9A9A9A" d="M46.113 78.046H22.605c-4.15 0-7.525-3.376-7.525-7.525V61.79a.547.547 0 0 1 1.094 0v8.731a6.44 6.44 0 0 0 6.431 6.432h23.508a6.44 6.44 0 0 0 6.431-6.432V69.19a.548.548 0 0 1 1.094 0v1.332c0 4.149-3.375 7.525-7.525 7.525M52.544 9.478v23.546a.548.548 0 0 0 1.094 0V9.478c0-4.15-3.377-7.525-7.525-7.525H22.605c-4.15 0-7.525 3.377-7.525 7.525v48.06a.547.547 0 0 0 1.094 0V9.478a6.44 6.44 0 0 1 6.431-6.431h23.508a6.44 6.44 0 0 1 6.431 6.431"/><path fill="#FD4E4E" d="M36.313 44.731a.6.6 0 0 1-.242-.056l-3.647-1.808a.547.547 0 0 1 .486-.98l3.646 1.807a.547.547 0 0 1-.243 1.037m-3.426 14.175a.55.55 0 0 1-.519-.723.55.55 0 0 1 .277-.314l3.654-1.79a.547.547 0 0 1 .482.98l-3.654 1.791a.54.54 0 0 1-.24.056M70.309 42.17a.547.547 0 0 1-.274-1.021l3.527-2.029a.548.548 0 0 1 .545.949l-3.526 2.028a.54.54 0 0 1-.272.073m-10.424-6.692a.546.546 0 0 1-.542-.618l.54-4.033a.546.546 0 1 1 1.083.145l-.54 4.033a.55.55 0 0 1-.54.473M52 40c-6.628 0-12 5.373-12 12 0 6.628 5.373 12 12 12 6.628 0 12-5.373 12-12 0-6.628-5.372-12-12-12m6.663 17.385a.905.905 0 0 1-1.278 1.278L52 53.278l-5.385 5.385a.9.9 0 0 1-1.278 0 .904.904 0 0 1 0-1.278L50.722 52l-5.385-5.385a.905.905 0 0 1 1.278-1.278L52 50.722l5.385-5.385a.905.905 0 0 1 1.278 1.278L53.278 52z"/><path fill="#E1EAF8" d="M47.973 13H21.027C19.908 13 19 13.968 19 15.162v17.677c0 1.193.908 2.161 2.027 2.161h26.945c1.12 0 2.028-.968 2.028-2.161V15.162C50 13.968 49.092 13 47.973 13"/><path fill="#9A9A9A" d="M39.275 22.59c0 .541-.459.98-1.024.98s-1.023-.439-1.023-.98c0-.542.458-.981 1.023-.981s1.024.439 1.024.98"/><path fill="#9A9A9A" fill-rule="evenodd" d="M38.926 19.257c-.777-.1-1.77-.1-3.024-.1h-2.806c-1.253 0-2.246 0-3.023.1-.8.103-1.447.32-1.958.81-.51.489-.737 1.11-.844 1.876-.105.745-.105 1.697-.105 2.898v.074c0 1.202 0 2.154.104 2.899.108.766.335 1.387.845 1.876.51.49 1.158.706 1.958.81.777.1 1.77.1 3.023.1h2.806c1.254 0 2.247 0 3.024-.1.8-.104 1.447-.32 1.958-.81s.737-1.11.844-1.876c.105-.745.105-1.697.105-2.899v-.074c0-1.201 0-2.153-.105-2.898-.107-.767-.334-1.387-.844-1.876-.51-.49-1.158-.707-1.958-.81m-8.717.972c-.686.088-1.082.254-1.37.531-.29.277-.462.656-.554 1.314-.074.527-.091 1.187-.095 2.05l.346-.29a2.15 2.15 0 0 1 2.84.09l2.927 2.806a.88.88 0 0 0 1.094.09l.203-.137a2.644 2.644 0 0 1 3.182.184l1.766 1.523c.072-.194.127-.425.166-.707.094-.672.095-1.558.095-2.805s0-2.132-.095-2.804c-.092-.658-.265-1.037-.554-1.314s-.684-.443-1.37-.53c-.701-.091-1.626-.092-2.926-.092h-2.729c-1.3 0-2.225 0-2.926.091" clip-rule="evenodd"/><path fill="#9A9A9A" d="M38.23 17.114c-.631-.08-1.434-.08-2.435-.08H33.53c-1 0-1.803 0-2.434.08-.652.084-1.197.263-1.629.675-.249.238-.416.512-.53.82.37-.168.787-.268 1.256-.329.796-.103 1.812-.103 3.095-.103h2.87c1.283 0 2.3 0 3.095.104.41.053.78.135 1.114.268a2.1 2.1 0 0 0-.508-.76c-.431-.412-.976-.591-1.629-.675"/></svg>
